svgs/success-operation-light.svg

<svg width="400" height="400" viewBox="0 0 400 400" fill="none" xmlns="http://www.w3.org/2000/svg">
<g id="success-operation">
<g id="success_operation">
<path id="Vector" d="M142.858 47.1317V88.3214C142.858 90.3237 144.29 92.0389 146.293 92.4225C173.488 97.2835 193.906 121.499 192.853 150.294C191.805 179.755 167.759 203.686 138.37 204.829C109.555 205.879 85.4148 185.474 80.451 158.397C80.2757 157.436 79.7693 156.567 79.0196 155.94C78.27 155.313 77.3244 154.968 76.3468 154.964H35.1325C32.653 154.964 30.7433 157.063 31.0282 159.444C36.6607 212.838 82.0783 254.313 137.136 253.835C194.577 253.36 241.426 206.45 241.904 149.054C242.38 94.0412 200.777 48.6588 147.341 43.0282C144.956 42.7435 142.858 44.6541 142.858 47.1317Z" fill="#F0F3F5"/>
<path id="Vector_2" fill-rule="evenodd" clip-rule="evenodd" d="M68.1485 72.9712L97.2527 102.05C97.965 102.751 98.9046 103.175 99.9019 103.245C100.899 103.315 101.889 103.026 102.692 102.432C109.467 97.3776 117.48 93.9472 126.164 92.3236C128.168 91.9449 129.599 90.3213 129.599 88.2249V47.1317C129.599 44.6542 127.499 42.746 125.019 43.0306C104.203 45.2355 84.5107 53.5642 68.4358 66.9618C66.5285 68.4889 66.4319 71.2559 68.1485 72.9688V72.9712ZM52.7864 82.9827C40.9564 98.2389 33.1317 116.732 31.0337 136.949C30.744 139.332 32.7478 141.428 35.1356 141.428H76.2605C78.2644 141.428 79.9809 139.998 80.3648 137.996C81.6941 130.503 84.5514 123.364 88.7593 117.022C89.2707 116.218 89.5014 115.267 89.4154 114.319C89.3293 113.37 88.9314 112.476 88.2836 111.777L58.9887 82.6956C57.2721 80.8863 54.3146 81.0745 52.7864 82.9827ZM162.709 239.25H216.62C219.674 239.25 222.153 241.727 222.25 244.875V351.374C222.247 352.865 221.653 354.295 220.598 355.349C219.543 356.404 218.112 356.997 216.62 357H162.709C161.216 356.997 159.786 356.404 158.731 355.349C157.675 354.295 157.081 352.865 157.079 351.374V244.875C157.081 243.384 157.675 241.955 158.731 240.9C159.786 239.846 161.216 239.252 162.709 239.25ZM289.901 283.491H236.183C234.666 283.495 233.212 284.099 232.138 285.17C231.065 286.242 230.461 287.695 230.456 289.211V351.186C230.461 352.702 231.065 354.154 232.138 355.226C233.21 356.297 234.664 356.901 236.18 356.906H289.901C291.417 356.901 292.871 356.297 293.943 355.226C295.016 354.154 295.62 352.702 295.625 351.186V289.211C295.62 287.695 295.016 286.243 293.943 285.171C292.871 284.1 291.417 283.496 289.901 283.491ZM309.843 313.335H363.087C364.654 313.343 366.154 313.968 367.261 315.075C368.369 316.181 368.995 317.68 369.002 319.246V350.901C368.994 352.466 368.368 353.965 367.261 355.072C366.153 356.178 364.654 356.804 363.087 356.812H309.843C308.276 356.804 306.776 356.179 305.669 355.072C304.561 353.965 303.935 352.467 303.928 350.901V319.246C303.935 317.68 304.561 316.181 305.669 315.075C306.776 313.968 308.276 313.343 309.843 313.335Z" fill="#F0F3F5"/>
<path id="Vector_3" fill-rule="evenodd" clip-rule="evenodd" d="M65.76 170.696C57.2714 170.696 50.3014 177.661 50.3014 186.143V305.705C50.3014 314.187 57.2714 321.151 65.7576 321.151H250.393C258.891 321.151 265.839 314.276 265.755 305.724V186.145C265.755 177.661 258.785 170.696 250.298 170.696H65.7576H65.76ZM250.393 324.963H65.76C55.1613 324.963 46.4844 316.293 46.4844 305.705V186.145C46.4844 175.555 55.1637 166.884 65.76 166.884H250.298C260.892 166.884 269.572 175.555 269.572 186.143V305.695C269.673 316.399 260.977 324.963 250.393 324.963Z" fill="#999999"/>
<path id="Vector_4" d="M66.3343 191.199C67.6504 191.199 68.9127 190.677 69.8433 189.747C70.774 188.817 71.2968 187.556 71.2968 186.24C71.2968 184.925 70.774 183.664 69.8433 182.734C68.9127 181.804 67.6504 181.282 66.3343 181.282C65.0184 181.282 63.7565 181.804 62.8261 182.734C61.8956 183.663 61.3729 184.924 61.3729 186.239C61.3729 187.554 61.8956 188.815 62.8261 189.745C63.7565 190.674 65.0184 191.199 66.3343 191.199ZM82.4593 191.199C83.7754 191.199 85.0377 190.677 85.9684 189.747C86.899 188.817 87.4219 187.556 87.4219 186.24C87.4219 184.925 86.899 183.664 85.9684 182.734C85.0377 181.804 83.7754 181.282 82.4593 181.282C81.1435 181.282 79.8815 181.804 78.9511 182.734C78.0207 183.663 77.4979 184.924 77.4979 186.239C77.4979 187.554 78.0207 188.815 78.9511 189.745C79.8815 190.674 81.1435 191.199 82.4593 191.199ZM98.5867 191.199C99.9029 191.199 101.165 190.677 102.096 189.747C103.026 188.817 103.549 187.556 103.549 186.24C103.549 184.925 103.026 183.664 102.096 182.734C101.165 181.804 99.9029 181.282 98.5867 181.282C97.2709 181.282 96.0089 181.804 95.0785 182.734C94.1481 183.663 93.6254 184.924 93.6254 186.239C93.6254 187.554 94.1481 188.815 95.0785 189.745C96.0089 190.674 97.2709 191.199 98.5867 191.199Z" fill="#999999"/>
<path id="Vector_5" fill-rule="evenodd" clip-rule="evenodd" d="M46.7715 203.971C46.7715 203.465 46.9724 202.98 47.3301 202.623C47.6878 202.265 48.1729 202.065 48.6788 202.065H267.092C267.598 202.065 268.083 202.265 268.441 202.623C268.798 202.98 268.999 203.465 268.999 203.971C268.999 204.476 268.798 204.961 268.441 205.318C268.083 205.676 267.598 205.876 267.092 205.876H48.6812C48.4307 205.876 48.1827 205.827 47.9513 205.731C47.7199 205.635 47.5096 205.495 47.3325 205.318C47.1554 205.141 47.0149 204.931 46.9191 204.7C46.8232 204.469 46.7715 204.221 46.7715 203.971Z" fill="#999999"/>
<path id="Vector_6" d="M332.548 286.54L125.586 297.983C118.621 298.364 112.897 293.025 112.897 286.063V126.457C112.897 119.497 118.621 114.159 125.586 114.54L332.548 125.982C337.891 126.266 342.186 131.415 342.186 137.422V275.098C342.186 281.105 337.891 286.256 332.548 286.54Z" fill="#FFD493"/>
<path id="Vector_7" d="M226.461 231.776C225.107 233.223 222.516 233.291 221.043 231.916L195.541 208.074C194.069 206.699 193.962 204.108 195.317 202.658L200.517 197.339C201.862 195.652 204.216 195.592 205.698 197.204L223.1 213.246L256.961 177.007C258.303 175.323 260.659 175.263 262.139 176.872L267.769 181.909C269.242 183.284 269.348 185.875 267.994 187.325L226.461 231.776Z" fill="#DD7E10"/>
<path id="Vector_8" fill-rule="evenodd" clip-rule="evenodd" d="M137.421 131.414C137.421 134.657 134.843 137.134 131.6 136.944C128.356 136.847 125.78 134.085 125.78 130.84C125.772 130.088 125.92 129.342 126.214 128.649C126.507 127.956 126.94 127.331 127.486 126.813C128.032 126.294 128.679 125.894 129.386 125.636C130.093 125.378 130.846 125.268 131.598 125.313C134.749 125.41 137.421 128.172 137.421 131.414ZM156.216 132.174C156.219 132.918 156.071 133.653 155.782 134.338C155.493 135.023 155.068 135.642 154.533 136.159C153.999 136.675 153.365 137.078 152.671 137.344C151.976 137.61 151.235 137.733 150.492 137.706C147.344 137.61 144.768 134.845 144.768 131.699C144.766 130.956 144.914 130.221 145.203 129.536C145.493 128.852 145.917 128.233 146.452 127.717C146.986 127.2 147.62 126.797 148.314 126.531C149.008 126.266 149.749 126.143 150.492 126.17C153.64 126.36 156.216 129.026 156.216 132.174ZM169.003 138.468C172.057 138.659 174.538 136.179 174.538 133.033C174.538 129.887 172.057 127.219 169.003 127.123C165.854 126.93 163.375 129.41 163.375 132.558C163.375 135.704 165.951 138.372 169.003 138.468Z" fill="#DD7E10"/>
<path id="Vector_9" fill-rule="evenodd" clip-rule="evenodd" d="M291.045 65.1526C291.296 65.1526 291.544 65.2019 291.775 65.2977C292.006 65.3934 292.217 65.5338 292.394 65.7108C292.571 65.8878 292.711 66.0979 292.807 66.3291C292.903 66.5603 292.952 66.8081 292.952 67.0584V73.9242C292.952 74.4299 292.751 74.915 292.393 75.2726C292.036 75.6303 291.55 75.8312 291.044 75.8312C290.538 75.8312 290.052 75.6303 289.694 75.2726C289.337 74.915 289.135 74.4299 289.135 73.9242V67.0608C289.135 66.8103 289.185 66.5623 289.281 66.3309C289.377 66.0996 289.518 65.8893 289.695 65.7123C289.872 65.5353 290.083 65.395 290.314 65.2994C290.546 65.2037 290.794 65.1547 291.045 65.155V65.1526ZM274.633 81.4606C274.632 81.2099 274.682 80.9616 274.778 80.7299C274.873 80.4983 275.014 80.2878 275.191 80.1105C275.369 79.9333 275.579 79.7927 275.811 79.6969C276.043 79.6011 276.292 79.552 276.543 79.5523H283.508C284.014 79.5523 284.499 79.7531 284.856 80.1105C285.214 80.4679 285.415 80.9527 285.415 81.4581C285.415 81.9636 285.214 82.4483 284.856 82.8058C284.499 83.1632 284.014 83.364 283.508 83.364H276.543C276.292 83.3643 276.044 83.3152 275.812 83.2196C275.58 83.1239 275.37 82.9836 275.192 82.8066C275.015 82.6296 274.874 82.4194 274.778 82.188C274.682 81.9566 274.633 81.7086 274.633 81.4581V81.4606ZM296.579 81.4606C296.578 81.2099 296.628 80.9616 296.723 80.7299C296.819 80.4983 296.96 80.2878 297.137 80.1105C297.315 79.9333 297.525 79.7927 297.757 79.6969C297.989 79.6011 298.237 79.552 298.488 79.5523H305.454C305.959 79.5523 306.445 79.7531 306.802 80.1105C307.16 80.4679 307.361 80.9527 307.361 81.4581C307.361 81.9636 307.16 82.4483 306.802 82.8058C306.445 83.1632 305.959 83.364 305.454 83.364H298.488C298.238 83.3643 297.989 83.3152 297.758 83.2196C297.526 83.1239 297.316 82.9836 297.138 82.8066C296.961 82.6296 296.82 82.4194 296.724 82.188C296.628 81.9566 296.579 81.7086 296.579 81.4581V81.4606ZM291.045 86.5073C291.296 86.5073 291.544 86.5567 291.776 86.6526C292.007 86.7486 292.217 86.8892 292.395 87.0664C292.572 87.2436 292.712 87.454 292.808 87.6855C292.904 87.917 292.953 88.1651 292.952 88.4156V95.8531C292.952 96.3588 292.751 96.8439 292.393 97.2015C292.036 97.5592 291.55 97.7601 291.044 97.7601C290.538 97.7601 290.052 97.5592 289.694 97.2015C289.337 96.8439 289.135 96.3588 289.135 95.8531V88.4156C289.135 88.1651 289.185 87.9171 289.281 87.6857C289.377 87.4543 289.518 87.2441 289.695 87.0671C289.872 86.8901 290.083 86.7498 290.314 86.6541C290.546 86.5585 290.794 86.507 291.045 86.5073Z" fill="#999999"/>
</g>
</g>
</svg>

<svg xmlns="http://www.w3.org/2000/svg" width="400" height="400" fill="none" viewBox="0 0 400 400"><path fill="#F0F3F5" d="M142.858 47.132v41.19c0 2.002 1.432 3.717 3.435 4.1 27.195 4.862 47.613 29.077 46.56 57.872-1.048 29.461-25.094 53.392-54.483 54.535-28.815 1.05-52.955-19.355-57.919-46.432a4.18 4.18 0 0 0-1.431-2.457 4.2 4.2 0 0 0-2.673-.976H35.133c-2.48 0-4.39 2.099-4.105 4.48 5.633 53.394 51.05 94.869 106.108 94.391 57.441-.475 104.29-47.385 104.768-104.781.476-55.013-41.127-100.395-94.563-106.026-2.385-.285-4.483 1.626-4.483 4.104"/><path fill="#F0F3F5" fill-rule="evenodd" d="m68.149 72.971 29.104 29.079a4.196 4.196 0 0 0 5.439.382c6.775-5.054 14.788-8.485 23.472-10.108 2.004-.38 3.435-2.003 3.435-4.1V47.133c0-2.478-2.1-4.386-4.58-4.101a105.8 105.8 0 0 0-56.583 23.93c-1.908 1.528-2.004 4.295-.288 6.008zM52.786 82.983c-11.83 15.256-19.654 33.749-21.752 53.966-.29 2.383 1.714 4.479 4.102 4.479H76.26c2.004 0 3.72-1.43 4.105-3.432a55.5 55.5 0 0 1 8.394-20.974 4.31 4.31 0 0 0-.475-5.245L58.989 82.696c-1.717-1.81-4.674-1.621-6.203.287M162.71 239.25h53.911c3.054 0 5.533 2.477 5.63 5.625v106.499a5.636 5.636 0 0 1-5.63 5.626H162.71a5.64 5.64 0 0 1-5.63-5.626V244.875a5.64 5.64 0 0 1 5.63-5.625m127.192 44.241h-53.718a5.74 5.74 0 0 0-5.727 5.72v61.975a5.736 5.736 0 0 0 5.724 5.72h53.721a5.736 5.736 0 0 0 5.724-5.72v-61.975a5.736 5.736 0 0 0-5.724-5.72m19.942 29.844h53.244a5.945 5.945 0 0 1 5.915 5.911v31.655a5.943 5.943 0 0 1-5.915 5.911h-53.244a5.945 5.945 0 0 1-5.915-5.911v-31.655a5.945 5.945 0 0 1 5.915-5.911" clip-rule="evenodd"/><path fill="#999" fill-rule="evenodd" d="M65.76 170.696c-8.489 0-15.459 6.965-15.459 15.447v119.562c0 8.482 6.97 15.446 15.457 15.446h184.635c8.498 0 15.446-6.875 15.362-15.427V186.145c0-8.484-6.97-15.449-15.457-15.449H65.758zm184.633 154.267H65.76c-10.599 0-19.276-8.67-19.276-19.258v-119.56c0-10.59 8.68-19.261 19.276-19.261h184.538c10.594 0 19.274 8.671 19.274 19.259v119.552c.101 10.704-8.595 19.268-19.179 19.268" clip-rule="evenodd"/><path fill="#999" d="M66.334 191.199a4.964 4.964 0 0 0 4.963-4.959 4.956 4.956 0 0 0-4.963-4.958 4.96 4.96 0 0 0-4.961 4.957c0 1.315.523 2.576 1.453 3.506a4.97 4.97 0 0 0 3.508 1.454m16.125 0a4.964 4.964 0 0 0 4.963-4.959 4.957 4.957 0 0 0-4.963-4.958 4.96 4.96 0 0 0-4.961 4.957c0 1.315.523 2.576 1.453 3.506a4.97 4.97 0 0 0 3.508 1.454m16.128 0a4.96 4.96 0 1 0 0-9.917 4.96 4.96 0 0 0-4.962 4.957 4.97 4.97 0 0 0 4.961 4.96"/><path fill="#999" fill-rule="evenodd" d="M46.772 203.971a1.904 1.904 0 0 1 1.907-1.906h218.413a1.906 1.906 0 1 1 0 3.811H48.682a1.9 1.9 0 0 1-1.763-1.176 1.9 1.9 0 0 1-.147-.729" clip-rule="evenodd"/><path fill="#FFD493" d="m332.548 286.54-206.962 11.443c-6.965.381-12.689-4.958-12.689-11.92V126.457c0-6.96 5.724-12.298 12.689-11.917l206.962 11.442c5.343.284 9.638 5.433 9.638 11.44v137.676c0 6.007-4.295 11.158-9.638 11.442"/><path fill="#DD7E10" d="M226.461 231.776c-1.354 1.447-3.945 1.515-5.418.14l-25.502-23.842c-1.472-1.375-1.579-3.966-.224-5.416l5.2-5.319c1.345-1.687 3.699-1.747 5.181-.135l17.402 16.042 33.861-36.239c1.342-1.684 3.698-1.744 5.178-.135l5.63 5.037c1.473 1.375 1.579 3.966.225 5.416z"/><path fill="#DD7E10" fill-rule="evenodd" d="M137.421 131.414c0 3.243-2.578 5.72-5.821 5.53-3.244-.097-5.82-2.859-5.82-6.104a5.5 5.5 0 0 1 .434-2.191 5.49 5.49 0 0 1 5.384-3.336c3.151.097 5.823 2.859 5.823 6.101m18.795.76a5.5 5.5 0 0 1-1.683 3.985 5.53 5.53 0 0 1-4.041 1.547c-3.148-.096-5.724-2.861-5.724-6.007a5.52 5.52 0 0 1 1.684-3.982 5.5 5.5 0 0 1 4.04-1.547c3.148.19 5.724 2.856 5.724 6.004m12.787 6.294c3.054.191 5.535-2.289 5.535-5.435s-2.481-5.814-5.535-5.91c-3.149-.193-5.628 2.287-5.628 5.435 0 3.146 2.576 5.814 5.628 5.91" clip-rule="evenodd"/><path fill="#999" fill-rule="evenodd" d="M291.045 65.153a1.905 1.905 0 0 1 1.907 1.905v6.866a1.906 1.906 0 0 1-1.908 1.907 1.91 1.91 0 0 1-1.909-1.907v-6.863a1.905 1.905 0 0 1 1.91-1.906zM274.633 81.46a1.9 1.9 0 0 1 1.178-1.764c.232-.096.481-.145.732-.145h6.965a1.905 1.905 0 1 1 0 3.812h-6.965a1.91 1.91 0 0 1-1.765-1.176 1.9 1.9 0 0 1-.145-.73zm21.946 0a1.91 1.91 0 0 1 1.178-1.764 1.9 1.9 0 0 1 .731-.145h6.966a1.907 1.907 0 0 1 0 3.812h-6.966a1.906 1.906 0 0 1-1.909-1.906zm-5.534 5.046a1.91 1.91 0 0 1 1.763 1.178c.096.232.145.48.144.73v7.438a1.906 1.906 0 0 1-1.908 1.907 1.91 1.91 0 0 1-1.909-1.907v-7.437a1.905 1.905 0 0 1 1.179-1.762c.232-.096.48-.147.731-.147" clip-rule="evenodd"/></svg>
